X: 3593
T: Bill Cheatham
R: reel
M: 4/4
K: Gmajor
|:"G" DG B2B2 GA|BAGB AGED|"C" CB c2 c4|efge dBAG|
"G" DG B2B2 GA|BAGB AGEG|Bcdg "C" efge|"D" dcBA "G" G4:|
"G" Bdgd "C"eceg|"D"fdfa "G"gedc|Bcdg "D"efge|"G" dBGB "D" A2 Bc|
"G" dBdg "C" eceg|"D" fdfa "G" gedc|Bcdg "C" efge|"D" dcBA "G" G4:|

